X:1
T:Columbia -- Hornpipe
R:hornpipe
B:Cole's 1000 Fiddle Tunes
M:2/4
L:1/16
K:D
vA>BA>^G A>BA>G|A>d.f2 d>f.a2|\
v=g>ag>f e>fe>d|c>dc>B A>GF>G|
A>BA>^G A>BA>G|A>d.f2 d>f.a2|\
g>fe>d c>AB>c|d2f2d2z2:|
|:ve>dc>B A>Bc>A|d>ef>g "1"a>"2"b"3"c'>"4"d'|\
"0"e'>"4"d'"3"c'>"2"b "1"a>"2"gf>e|f>ga>b a>cd>^d|
e>dc>B A>Bc>A|d>ef>g a>bc'>d'|\
e'>d'c'>b a>gf>e|d2f2d2z2:|
